icons-rebrand/svg/participant-add-bold.svg

<svg xmlns="http://www.w3.org/2000/svg" width="32" height="32" viewBox="0 0 32 32"><path d="M28 23H25V20C25 19.7348 24.8946 19.4804 24.7071 19.2929C24.5196 19.1054 24.2652 19 24 19C23.7348 19 23.4804 19.1054 23.2929 19.2929C23.1054 19.4804 23 19.7348 23 20V23H20C19.7348 23 19.4804 23.1054 19.2929 23.2929C19.1054 23.4804 19 23.7348 19 24C19 24.2652 19.1054 24.5196 19.2929 24.7071C19.4804 24.8946 19.7348 25 20 25H23V28C23 28.2652 23.1054 28.5196 23.2929 28.7071C23.4804 28.8946 23.7348 29 24 29C24.2652 29 24.5196 28.8946 24.7071 28.7071C24.8946 28.5196 25 28.2652 25 28V25H28C28.2652 25 28.5196 24.8946 28.7071 24.7071C28.8946 24.5196 29 24.2652 29 24C29 23.7348 28.8946 23.4804 28.7071 23.2929C28.5196 23.1054 28.2652 23 28 23Z M18.847 27.7131C13.797 28.5091 8.112 27.6501 5.902 25.7591C5.63485 25.5653 5.41496 25.3136 5.25877 25.0229C5.10258 24.7322 5.01411 24.4099 5 24.0801C5 19.1591 9.58 15.0001 15 15.0001C17.31 15.0001 19.555 15.7601 21.39 17.1631C21.4939 17.2441 21.6128 17.3037 21.7399 17.3386C21.867 17.3734 21.9996 17.3828 22.1303 17.3663C22.261 17.3497 22.3872 17.3075 22.5015 17.242C22.6158 17.1765 22.7161 17.0891 22.7965 16.9847C22.877 16.8804 22.936 16.7612 22.9702 16.6339C23.0044 16.5067 23.0132 16.374 22.9959 16.2434C22.9787 16.1127 22.9358 15.9868 22.8697 15.8728C22.8037 15.7588 22.7158 15.659 22.611 15.5791C21.5098 14.7347 20.2746 14.0813 18.957 13.6461C20.0351 12.8191 20.8269 11.675 21.2212 10.3747C21.6154 9.07438 21.5922 7.6832 21.1549 6.39673C20.7176 5.11026 19.8881 3.99318 18.7831 3.20253C17.678 2.41187 16.353 1.9874 14.9942 1.98877C13.6354 1.99015 12.3112 2.4173 11.2078 3.21019C10.1044 4.00308 9.27713 5.12184 8.84242 6.40919C8.4077 7.69655 8.38734 9.08777 8.78421 10.3873C9.18109 11.6868 9.97523 12.8293 11.055 13.6541C6.421 15.2001 3 19.3441 3 24.0801C3.01333 24.699 3.16407 25.3071 3.4413 25.8606C3.71854 26.414 4.11535 26.8989 4.603 27.2801C6.819 29.1751 11.048 29.9951 15.043 29.9951C16.4201 29.9985 17.7955 29.8962 19.157 29.6891C19.2867 29.6688 19.4112 29.6231 19.5233 29.5546C19.6354 29.4861 19.7329 29.3963 19.8102 29.2901C19.8876 29.184 19.9433 29.0637 19.9741 28.936C20.005 28.8084 20.0104 28.6759 19.99 28.5461C19.9696 28.4164 19.9239 28.2919 19.8555 28.1798C19.787 28.0677 19.6972 27.9702 19.591 27.8929C19.4849 27.8155 19.3645 27.7599 19.2369 27.729C19.1092 27.6982 18.9767 27.6928 18.847 27.7131ZM10.5 8.50012C10.5 7.30665 10.9741 6.16205 11.818 5.31814C12.6619 4.47423 13.8065 4.00012 15 4.00012C16.1935 4.00012 17.3381 4.47423 18.182 5.31814C19.0259 6.16205 19.5 7.30665 19.5 8.50012C19.5 9.6936 19.0259 10.8382 18.182 11.6821C17.3381 12.526 16.1935 13.0001 15 13.0001C13.8065 13.0001 12.6619 12.526 11.818 11.6821C10.9741 10.8382 10.5 9.6936 10.5 8.50012Z"/></svg>

<svg width="32" height="32" viewBox="0 0 32 32" xmlns="http://www.w3.org/2000/svg"><path d="M28 23h-3v-3a1 1 0 0 0-2 0v3h-3a1 1 0 1 0 0 2h3v3a1 1 0 1 0 2 0v-3h3a1 1 0 0 0 0-2Z"/><path d="M18.847 27.713c-5.05.796-10.735-.063-12.945-1.954A2.19 2.19 0 0 1 5 24.08C5 19.159 9.58 15 15 15c2.31 0 4.555.76 6.39 2.163a1 1 0 1 0 1.221-1.584 12.393 12.393 0 0 0-3.654-1.933 6.5 6.5 0 1 0-7.902.008C6.42 15.2 3 19.344 3 24.08a4.176 4.176 0 0 0 1.603 3.2c2.216 1.895 6.445 2.715 10.44 2.715a26.918 26.918 0 0 0 4.114-.306 1 1 0 0 0-.31-1.976ZM10.5 8.5a4.5 4.5 0 1 1 9.001 0 4.5 4.5 0 0 1-9 0Z"/></svg>
